X: 2
T: The Bear Dance
R: polka
M: 2/4
L: 1/8
K: Amin
P: Part A
|: eA A2 | eA A>B | cc Bc | dd cd |
ee dd | cc B2 | Ac BG | A2 A2 :|
P: Part B
Ac Ac | BG G2 | Ac Ac | d2 cd |
ee dd | cc B2 | cA BG | A2 A2 |]


Tune 4195	Setting 16957

